X: 32354
T: Pink, But No Barbie
R: jig
M: 6/8
K: Dmajor
|:fef a2f|e3 c3|cBc e2c|F3 F3:|
|:fef a2f|ece f2 e|cBc ece|fec B2e|
fef a2f|ece f2 e|cBc e2c|1 FAB F3:|2 FAB def||
|:aba age|fed edB|efg fed|fed efg|
aba age|fed edB|dBA BAF|1 FAB ded:|2 FAB F3||

